public/images/raceGame/heart.svg

<svg width="33" height="32" viewBox="0 0 33 32" fill="none" xmlns="http://www.w3.org/2000/svg">
<path d="M28.6544 6.14666C27.9521 5.46533 27.1183 4.92485 26.2005 4.5561C25.2828 4.18735 24.2991 3.99756 23.3057 3.99756C22.3123 3.99756 21.3286 4.18735 20.4108 4.5561C19.4931 4.92485 18.6592 5.46533 17.9569 6.14666L16.4994 7.55999L15.0419 6.14666C13.6234 4.77107 11.6994 3.99827 9.69318 3.99827C7.68701 3.99827 5.76301 4.77107 4.34443 6.14666C2.92585 7.52225 2.12891 9.38795 2.12891 11.3333C2.12891 13.2787 2.92585 15.1444 4.34443 16.52L5.80193 17.9333L16.4994 28.3067L27.1969 17.9333L28.6544 16.52C29.357 15.839 29.9144 15.0304 30.2947 14.1405C30.675 13.2505 30.8707 12.2966 30.8707 11.3333C30.8707 10.37 30.675 9.41613 30.2947 8.52619C29.9144 7.63624 29.357 6.82767 28.6544 6.14666Z" fill="white" stroke="white" stroke-width="2" stroke-linecap="round" stroke-linejoin="round"/>
</svg>

<svg width="33" height="32" fill="none" xmlns="http://www.w3.org/2000/svg"><path d="M28.654 6.147a7.582 7.582 0 0 0-2.453-1.59 7.768 7.768 0 0 0-5.79 0 7.583 7.583 0 0 0-2.454 1.59L16.499 7.56l-1.457-1.413a7.686 7.686 0 0 0-5.349-2.149c-2.006 0-3.93.773-5.349 2.149a7.224 7.224 0 0 0-2.215 5.186c0 1.946.797 3.811 2.215 5.187l1.458 1.413 10.697 10.374 10.698-10.374 1.457-1.413a7.324 7.324 0 0 0 1.64-2.38 7.141 7.141 0 0 0 0-5.614 7.324 7.324 0 0 0-1.64-2.38z" fill="#fff" stroke="#fff" stroke-width="2" stroke-linecap="round" stroke-linejoin="round"/></svg>
